!!!COM: Anon.
!!!LAR: Arban, Jean-Baptiste
!!!OTL: Last Rose of Summer
!!!OPR: The Art of Phrasing: 150 Classic and Popular Melodies
!!!ONM: No. 006
!!!OMD: Larghetto
**kern	**dynam
*ITromp	*
*ITrd1c2	*
*clefG2	*
*E-:	*
*k[b-e-a-]	*
*M3/4	*
(8.e-L	p
16f)J	.
=1	=1
(4g	<
(8.ee-)L	[>
16dd)J	]
(ddq	.
(8.cc)L	.
16b-)J	.
=2	=2
(4b-	.
8g)	.
8r	.
(8.e-L	.
16f)J	.
=3	=3
(8g	<
(4b-)	[>
8g)	]
(gq	.
(8.f)L	.
16e-)J	.
=4	=4
2e-,	.
(8.e-L	.
16f)J	.
=5	=5
(4g	<
(8.ee-)L	[>
16dd)J	]
(ddq	.
(8.cc)L	.
16b-)J	.
=6	=6
(4b-	.
8g)	.
8r	.
(8.e-L	.
16f)J	.
=7	=7
(8g	<
(4b-)	[>
8g)	]
(gq	.
(8.f)L	.
16e-)J	.
=8	=8
[4e-	.
8e-]	.
8r	.
=||:	=||:
(8.b-L	f
16g)J	.
=9	=9
(4.ee-	.
8dd)	.
(8.ccL	.
16b-)J	.
=10	=10
(4b-	.
8g)	.
8r	.
(8.b-L	.
16g)J	.
=11	=11
(4.ee-	.
8dd)L	.
8cc	.
8bJ	.
=12	=12
(8ccL	.
16ddQL	.
16ccQ	.
16bQJ	.
16cc	.
16dd)J	.
4ee-,;	.
!!LO:TX:i:a:t=a tempo
(8.e-L	p
16f)J	.
=13	=13
(4g	<
(8.ee-)L	[>
16dd)J	)
(ddq	)
(8.cc)L	)
16b-)J	]
=14	=14
(4b-	.
8g)	.
8r	.
(8.e-L	f
16f)J	.
=15	=15
(8g	.
(4b-)^	.
8g)	.
(gq	.
(8.f)L	.
16e-)J	.
=16	=16
2e-	.
==:|!	==:|!
*-	*-
!!!OCL: Edwin Franko Goldman
!!!OCL: Walter M. Smith
!!!OCL: Claude Gordon
!!!YOR: Arban's Complete Conservatory Method for Trumpet/Cornet
!!!PPR: Carl Fischer
!!!PPP: New York, NY
!!!PDT: 1893///
!!!reprint: Carl Fischer, 1982: ISBN 0-8258-0385-3
!!!EFL: 6/150
!!!ENC: Hubert Léveillé Gauvin
!!!END: 2018/05/13/